X: 20449
T: John Joe Harnett's
R: slide
M: 12/8
K: Edorian
|:EFE B2 A A2 F D3|EFE B2 E ABc d3|
EFE B2 A A2 F D3|Bcd B2 A F2 E E3:|
|:B2 ^A B2 c d2 c B2 =A|FGA B2 c d3 d2 e|
f2 d e2 c d2 c B2 A|Bcd B2 A F2 E E3:|

